src/lib/packages/icons/src/assets/filled/note-list-check.svg

<svg width="24" height="24" viewBox="0 0 24 24" fill="none" xmlns="http://www.w3.org/2000/svg">
<path d="M17 3H7C5 3 4 4 4 6V18C4 20 5 21 7 21H17C19 21 20 20 20 18V6C20 4 19 3 17 3ZM10.03 15.864L8.69702 17.197C8.55102 17.343 8.35899 17.417 8.16699 17.417C7.97599 17.417 7.78296 17.344 7.63696 17.198L6.96997 16.531C6.67697 16.238 6.67697 15.763 6.96997 15.47C7.26197 15.178 7.73701 15.177 8.03101 15.47L8.16797 15.607L8.97095 14.804C9.26395 14.511 9.73898 14.511 10.032 14.804C10.325 15.097 10.323 15.571 10.03 15.864ZM10.03 11.864L8.69702 13.197C8.55102 13.343 8.35899 13.417 8.16699 13.417C7.97599 13.417 7.78296 13.344 7.63696 13.198L6.96997 12.531C6.67697 12.238 6.67697 11.763 6.96997 11.47C7.26197 11.178 7.73701 11.177 8.03101 11.47L8.16797 11.607L8.97095 10.804C9.26395 10.511 9.73898 10.511 10.032 10.804C10.325 11.097 10.323 11.571 10.03 11.864ZM10.03 7.86401L8.69702 9.19702C8.55102 9.34302 8.35899 9.41699 8.16699 9.41699C7.97599 9.41699 7.78296 9.344 7.63696 9.198L6.96997 8.53101C6.67697 8.23801 6.67697 7.76297 6.96997 7.46997C7.26197 7.17797 7.73701 7.17697 8.03101 7.46997L8.16797 7.60699L8.97095 6.80402C9.26395 6.51102 9.73898 6.51102 10.032 6.80402C10.325 7.09702 10.323 7.57101 10.03 7.86401ZM16.5 16.75H12.5C12.086 16.75 11.75 16.414 11.75 16C11.75 15.586 12.086 15.25 12.5 15.25H16.5C16.914 15.25 17.25 15.586 17.25 16C17.25 16.414 16.914 16.75 16.5 16.75ZM16.5 12.75H12.5C12.086 12.75 11.75 12.414 11.75 12C11.75 11.586 12.086 11.25 12.5 11.25H16.5C16.914 11.25 17.25 11.586 17.25 12C17.25 12.414 16.914 12.75 16.5 12.75ZM16.5 8.75H12.5C12.086 8.75 11.75 8.414 11.75 8C11.75 7.586 12.086 7.25 12.5 7.25H16.5C16.914 7.25 17.25 7.586 17.25 8C17.25 8.414 16.914 8.75 16.5 8.75Z" fill="currentColor"/>
</svg>

<svg xmlns="http://www.w3.org/2000/svg" width="24" height="24" fill="none"><path fill="currentColor" d="M17 3H7C5 3 4 4 4 6v12c0 2 1 3 3 3h10c2 0 3-1 3-3V6c0-2-1-3-3-3Zm-6.97 12.864-1.333 1.333a.748.748 0 0 1-1.06.001l-.667-.667a.75.75 0 1 1 1.061-1.061l.137.137.803-.803a.75.75 0 1 1 1.059 1.06Zm0-4-1.333 1.333a.748.748 0 0 1-1.06.001l-.667-.667a.75.75 0 1 1 1.061-1.061l.137.137.803-.803a.75.75 0 1 1 1.059 1.06Zm0-4L8.697 9.197a.748.748 0 0 1-1.06.001l-.667-.667A.75.75 0 1 1 8.031 7.47l.137.137.803-.803a.75.75 0 1 1 1.059 1.06Zm6.47 8.886h-4a.75.75 0 0 1 0-1.5h4a.75.75 0 0 1 0 1.5Zm0-4h-4a.75.75 0 0 1 0-1.5h4a.75.75 0 0 1 0 1.5Zm0-4h-4a.75.75 0 0 1 0-1.5h4a.75.75 0 0 1 0 1.5Z"/></svg>
